X: 1
T: Squire Woodes's Lamentation on the Refusall of his Half Pence
B: A COLECTION of the most Celebrated Irish Tunes3a
M: C
L: 1/8
N: written with 2 sharps, but no c-sharp anywhere
K: G
GA | B4 B3g | d2Bd B2AG | B4 B3g | e2dg B3g | e2(dB) d2(dA) |
B2(AG) A2(GE) | G3A BGdB | A4 G2 || d2 | efg2 G2g2 | (ga) (b/a/g) e3d |
B2d2 efgf | e4 d3d | efga bGg2 | (ga) (b/a/g) e3d | (BA)B2 (dB)d2 |
(ed)e2 =f4 | geg2 ede2 | dBd2 BGB2 | g3e dgdB | A4 G4 |]
